X: 14212
T: Full Moon, The
R: jig
M: 6/8
K: Dmajor
|:g|fed cAA|fed cAG|FGA ABG|FGA A2G|
fed cAA|fed cAG|FDF GAG|FDD D2:|
|:G|FGA ABc|dfd cAG|cAA A2G|cAA A2g|
fed cAA|fed cAG|FDF GAG|FDD D2:|

